X:1
T:Will You Go?
T:W. H. Geistweit
T:Will You Go?
T:Public Domain
T:Public Domain
T:Public Domain
C:W. H. Geistweit
Z:Public Domain
%%score ( 1 2 ) ( 3 4 )
L:1/8
M:6/8
K:E
V:1 treble 
V:2 treble 
V:3 bass 
V:4 bass 
V:1
 B, | [B,E]/[B,E]/- [B,E]2 [B,E]2 [EG] | [EB]/[EB]/- [EB]2 [EB]2 [EB] | %3
w: 1.~My|bro- ther, * we are|trav- ’ling * to the|
w: 2.~My|sis- ter, * Christ is|call- ing * thee to|
w: 3.~My|hear- er, * in thy|jour- ney * whi- ther|
 [Ec]/[Ec]/- [Ec]2 [Ec]2 [Ec] | [EB]3- [EB]2 B,/B,/ | [B,E]/[B,E]/- [B,E]2 [B,E]2 [EG] | %6
w: pal- ace * of the|King, * We are|go- ing * to Mount|
w: jour- ney * toward that|home, * Where the|wear- y, * heav- y|
w: wilt thou * come at|last? * To the|throne of * God in|
 [EB]/[EB]/- [EB]2 [EB]2 [EB] | [Ec]/[Ec]/- [Ec]2 [Ec]2 [Ec] | [EB]3- [EB]2 [EG]/[EG]/ | %9
w: Zi- on, * where for-|ev- er * we shall|sing; * There no|
w: lad- en * find sweet|rest, no * more to|roam; * Canst thou|
w: Heav- en, * or where|hope is * ev- er|past? * Hear the|
 [DF]2 [DF] [DF]2 [EG] | [DA]/[DA]/- [DA]2 [DA]2 [DF] | [EG]2 [EG] [EG]2 [DA] | %12
w: sin or pain or|sigh- ing * can dis-|turb our peace- ful|
w: not for- sake the|e- vil, * and the|Spir- it’s call o-|
w: word that Je- sus|sends thee— * “Come to|Me and rest re-|
 [EB]3- [EB]2 [EB]/[EB]/ | [Ec]2 [Ed] [Ee]2 [Ec] | [Ec]/[EB]/- [EB]2 [EB]2 [Ec] | %15
w: rest, * For we|dwell a- mong the|an- gels, * and can|
w: bey? * Christ will|guide thee to that|ci- ty, * if you|
w: ceive; * I will|par- don, cleanse and|com- fort, * if you|
 [EG]2 [EB] [DF]2 [B,E] | [B,E]3- [B,E]2 ||"^Refrain" E/E/ | [CA]3 ([CA][=DB])[Ec] | [EB]6 | %20
w: lean on Je- sus’|breast. *||||
w: seek the nar- row|way. *|Will you|you go? * Go|to|
w: on- ly wilt be-|lieve.” *||||
 [DB]2 [DF]/[DF]/ [DB]2 [FA] | [EG]2 [EG] [EG]3 | [DB]2 [DF]/[DF]/ [DB]2 [FA] | [EG]2 [EG] [EG]3 | %24
w: ||||
w: that land of pure de-|light? Go where|the saints are clothed in|white? Go where|
w: ||||
 [EA]2 [EA]/[EA]/ [Ec]2 [Ee] | [Ge]2 [GB] [GB]2 [Ec] | [EG]3 [DF]3 | E3- E2 |] %28
w: ||||
w: the saved shall find no|night, But end- less|day? *||
w: ||||
V:2
 x | x6 | x6 | x6 | x6 | x6 | x6 | x6 | x6 | x6 | x6 | x6 | x6 | x6 | x6 | x6 | x5 || E/E/ | x6 | %19
w: |||||||||||||||||||
w: |||||||||||||||||go? Will||
 x6 | x6 | x6 | x6 | x6 | x6 | x6 | x6 | E3- E2 |] %28
w: |||||||||
w: |||||||||
V:3
 [E,G,] | [E,G,]/[E,G,]/- [E,G,]2 [E,G,]2 [E,B,] | [E,G,]/[E,G,]/- [E,G,]2 [E,G,]2 [E,G,] | %3
 [A,,A,]/[A,,A,]/- [A,,A,]2 [A,,A,]2 [C,A,] | [E,G,]3- [E,G,]2 [E,G,]/[E,G,]/ | %5
 [E,G,]/[E,G,]/- [E,G,]2 [E,G,]2 [E,B,] | [E,G,]/[E,G,]/- [E,G,]2 [E,G,]2 [E,G,] | %7
 [A,,A,]/[A,,A,]/- [A,,A,]2 [A,,A,]2 [C,A,] | [E,G,]3- [E,G,]2 [E,B,]/[E,B,]/ | %9
 [B,,B,]2 [B,,B,] [B,,B,]2 [B,,B,] | [B,,F,]/[B,,F,]/- [B,,F,]2 [B,,F,]2 [B,,B,] | %11
 [E,B,]2 [E,B,] [E,B,]2 [F,B,] | [G,B,]3- [G,B,]2 [E,G,]/[E,G,]/ | A,2 [A,B,] [A,C]2 A, | %14
 [E,A,]/[E,G,]/- [E,G,]2 [E,G,]2 [E,A,] | [E,B,]2 [E,G,] [B,,A,]2 [E,G,] | [E,G,]3- [E,G,]2 || %17
 E,/E,/ | [A,,E,]3 [A,,A,]2 [A,,A,] | [E,G,]6 | [B,,B,]2 [B,,B,]/[B,,B,]/ [B,,B,]2 [D,B,] | %21
 [E,B,]2 [E,B,] [E,B,]3 | [B,,B,]2 [B,,B,]/[B,,B,]/ [B,,B,]2 [D,B,] | [E,B,]2 [E,B,] [E,B,]3 | %24
 [A,,C]2 [A,,C]/[A,,C]/ [A,,A,]2 [A,,C] | [E,B,]2 [E,E] [E,E]2 [A,,C] | [B,,B,]3 [B,,A,]3 | %27
 [E,G,]3- [E,G,]2 |] %28
V:4
 x | x6 | x6 | x6 | x6 | x6 | x6 | x6 | x6 | x6 | x6 | x6 | x6 | A,2 x A, x2 | x6 | x6 | x5 || %17
 E,/E,/ | x6 | x6 | x6 | x6 | x6 | x6 | x6 | x6 | x6 | x5 |] %28

